public/home/logo6.svg

<svg width="216" height="65" viewBox="0 0 216 65" fill="none" xmlns="http://www.w3.org/2000/svg">
<g clip-path="url(#clip0_561_157)">
<path d="M71.656 16.46H76.6884L71.2045 39.5439H62.354L56.8701 16.46H61.9028L65.9986 35.4702H67.5602L71.656 16.46Z" fill="white"/>
<path d="M81.4873 32.9926C81.5104 34.0337 81.788 34.7919 82.3202 35.2671C82.8754 35.7197 83.6622 35.946 84.6805 35.946C86.8322 35.946 88.7528 35.8781 90.4419 35.7424L91.4138 35.6405L91.4833 39.0014C88.8223 39.635 86.4156 39.9519 84.2639 39.9519C81.6494 39.9519 79.7518 39.2729 78.5719 37.9149C77.3916 36.5571 76.8018 34.3505 76.8018 31.2953C76.8018 25.2075 79.3586 22.1636 84.472 22.1636C89.5162 22.1636 92.0385 24.7209 92.0385 29.8356L91.6914 32.9926H81.4873ZM87.457 29.5301C87.457 28.1722 87.2373 27.233 86.7977 26.7125C86.358 26.1693 85.5828 25.8977 84.472 25.8977C83.3846 25.8977 82.6093 26.1806 82.1466 26.7464C81.707 27.2896 81.4758 28.2174 81.4524 29.5301H87.457Z" fill="white"/>
<path d="M94.667 39.5444V22.5709H99.2831V24.3701C101.227 23.2386 103.078 22.503 104.836 22.1636V26.7464C102.962 27.1312 101.354 27.5272 100.012 27.9346L99.3177 28.1722V39.5444H94.667Z" fill="white"/>
<path d="M116.501 26.4406H112.232V33.3997C112.232 34.0787 112.244 34.5652 112.267 34.8594C112.313 35.131 112.44 35.3686 112.649 35.5723C112.88 35.776 113.227 35.8779 113.69 35.8779L116.328 35.81L116.536 39.4424C114.985 39.7819 113.806 39.9516 112.996 39.9516C110.913 39.9516 109.49 39.4987 108.727 38.5936C107.963 37.6657 107.581 35.9684 107.581 33.5016V26.4406H105.533V22.5707H107.581V17.8521H112.232V22.5707H116.501V26.4406Z" fill="white"/>
<path d="M118.837 39.5441V22.5706H123.488V39.5441H118.837ZM118.837 20.398V15.7812H123.488V20.398H118.837Z" fill="white"/>
<path d="M142.813 41.649C142.813 43.5955 142.049 45.0323 140.522 45.9603C138.995 46.8883 136.924 47.3521 134.31 47.3521C131.718 47.3521 129.717 47.0126 128.305 46.3336C126.917 45.655 126.223 44.4213 126.223 42.6337C126.223 41.2077 127.056 39.8614 128.722 38.5939C127.866 38.028 127.437 37.168 127.437 36.0139C127.437 35.5613 127.785 34.8144 128.479 33.7734L128.791 33.2982C127.218 32.1892 126.431 30.5598 126.431 28.4098C126.431 26.2372 127.09 24.6643 128.409 23.6912C129.751 22.718 131.521 22.2314 133.72 22.2314C134.714 22.2314 135.698 22.3446 136.67 22.5709L137.225 22.6727L142.813 22.503V26.1354L140.21 25.9317C140.719 26.7011 140.974 27.4706 140.974 28.2401C140.974 30.5032 140.384 32.0647 139.203 32.9247C138.024 33.7847 136.172 34.2147 133.65 34.2147C133.118 34.2147 132.644 34.1695 132.227 34.0789C131.996 34.6673 131.88 35.1539 131.88 35.5386C131.88 35.9008 132.077 36.1497 132.47 36.2855C132.863 36.4213 133.789 36.5005 135.247 36.5231C138.162 36.5457 140.152 36.9306 141.217 37.6772C142.281 38.4016 142.813 39.7254 142.813 41.649ZM130.804 42.1583C130.804 43.1313 132.019 43.618 134.448 43.618C136.901 43.618 138.128 43.0521 138.128 41.9205C138.128 41.3095 137.919 40.9137 137.503 40.7326C137.086 40.5742 136.207 40.4837 134.865 40.4611L131.741 40.2234C131.117 40.8344 130.804 41.4793 130.804 42.1583ZM131.082 28.274C131.082 29.9261 131.961 30.7521 133.72 30.7521C135.501 30.7521 136.392 29.9261 136.392 28.274C136.392 26.5993 135.501 25.7619 133.72 25.7619C131.961 25.7619 131.082 26.5993 131.082 28.274Z" fill="white"/>
<path d="M145.873 24.5059C147.1 22.9443 149.147 22.1636 152.017 22.1636C154.886 22.1636 156.934 22.9443 158.16 24.5059C159.386 26.0448 160 28.2174 160 31.0237C160 36.9757 157.339 39.9519 152.017 39.9519C146.695 39.9519 144.034 36.9757 144.034 31.0237C144.034 28.2174 144.647 26.0448 145.873 24.5059ZM149.449 34.8597C149.934 35.6745 150.79 36.0818 152.017 36.0818C153.243 36.0818 154.088 35.6745 154.551 34.8597C155.036 34.045 155.279 32.7663 155.279 31.0237C155.279 29.2811 155.036 28.0138 154.551 27.2217C154.088 26.4296 153.243 26.0335 152.017 26.0335C150.79 26.0335 149.934 26.4296 149.449 27.2217C148.986 28.0138 148.754 29.2811 148.754 31.0237C148.754 32.7663 148.986 34.045 149.449 34.8597Z" fill="white"/>
</g>
<defs>
<clipPath id="clip0_561_157">
<rect width="104" height="33" fill="white" transform="translate(56 15)"/>
</clipPath>
</defs>
</svg>

<svg width="216" height="65" fill="none" xmlns="http://www.w3.org/2000/svg"><g clip-path="url(#a)" fill="#fff"><path d="M71.656 16.46h5.032l-5.484 23.084h-8.85L56.87 16.46h5.033l4.096 19.01h1.561l4.096-19.01ZM81.487 32.993c.023 1.04.301 1.799.833 2.274.555.453 1.342.679 2.36.679 2.152 0 4.073-.068 5.762-.204l.972-.101.07 3.36c-2.662.634-5.068.95-7.22.95-2.615 0-4.512-.678-5.692-2.036-1.18-1.358-1.77-3.565-1.77-6.62 0-6.088 2.557-9.131 7.67-9.131 5.044 0 7.567 2.557 7.567 7.672l-.348 3.157H81.487Zm5.97-3.463c0-1.358-.22-2.297-.66-2.818-.439-.543-1.214-.814-2.325-.814-1.087 0-1.863.283-2.325.848-.44.544-.671 1.471-.695 2.784h6.005ZM94.667 39.544V22.571h4.616v1.8c1.944-1.132 3.795-1.868 5.553-2.207v4.582c-1.874.385-3.482.781-4.824 1.189l-.694.237v11.372h-4.651ZM116.501 26.44h-4.269v6.96c0 .679.012 1.165.035 1.46.046.271.173.509.382.712.231.204.578.306 1.041.306l2.638-.068.208 3.632c-1.551.34-2.73.51-3.54.51-2.083 0-3.506-.453-4.269-1.358-.764-.928-1.146-2.626-1.146-5.092V26.44h-2.048v-3.87h2.048v-4.719h4.651v4.719h4.269v3.87ZM118.837 39.544V22.571h4.651v16.973h-4.651Zm0-19.146v-4.617h4.651v4.617h-4.651ZM142.813 41.649c0 1.947-.764 3.383-2.291 4.311-1.527.928-3.598 1.392-6.212 1.392-2.592 0-4.593-.34-6.005-1.018-1.388-.679-2.082-1.913-2.082-3.7 0-1.426.833-2.773 2.499-4.04-.856-.566-1.285-1.426-1.285-2.58 0-.453.348-1.2 1.042-2.24l.312-.476c-1.573-1.109-2.36-2.738-2.36-4.888 0-2.173.659-3.746 1.978-4.719 1.342-.973 3.112-1.46 5.311-1.46.994 0 1.978.114 2.95.34l.555.102 5.588-.17v3.632l-2.603-.203c.509.77.764 1.539.764 2.308 0 2.263-.59 3.825-1.771 4.685-1.179.86-3.031 1.29-5.553 1.29a6.734 6.734 0 0 1-1.423-.136c-.231.588-.347 1.075-.347 1.46 0 .362.197.61.59.746.393.136 1.319.216 2.777.238 2.915.023 4.905.408 5.97 1.154 1.064.725 1.596 2.048 1.596 3.972Zm-12.009.51c0 .972 1.215 1.459 3.644 1.459 2.453 0 3.68-.566 3.68-1.698 0-.61-.209-1.006-.625-1.187-.417-.159-1.296-.25-2.638-.272l-3.124-.238c-.624.611-.937 1.256-.937 1.935Zm.278-13.885c0 1.652.879 2.478 2.638 2.478 1.781 0 2.672-.826 2.672-2.478 0-1.675-.891-2.512-2.672-2.512-1.759 0-2.638.837-2.638 2.512ZM145.873 24.506c1.227-1.562 3.274-2.342 6.144-2.342 2.869 0 4.917.78 6.143 2.342 1.226 1.539 1.84 3.711 1.84 6.518 0 5.952-2.661 8.928-7.983 8.928-5.322 0-7.983-2.976-7.983-8.928 0-2.807.613-4.98 1.839-6.518Zm3.576 10.354c.485.815 1.341 1.222 2.568 1.222 1.226 0 2.071-.407 2.534-1.222.485-.815.728-2.094.728-3.836 0-1.743-.243-3.01-.728-3.802-.463-.792-1.308-1.189-2.534-1.189-1.227 0-2.083.397-2.568 1.189-.463.792-.695 2.06-.695 3.802s.232 3.021.695 3.836Z"/></g><defs><clipPath id="a"><path fill="#fff" transform="translate(56 15)" d="M0 0h104v33H0z"/></clipPath></defs></svg>
